src/icons/datapower-routing.svg

<?xml version="1.0" encoding="UTF-8"?>
<svg xmlns="http://www.w3.org/2000/svg" xmlns:xlink="http://www.w3.org/1999/xlink" width="32" height="32" viewBox="0 0 32 32" version="1.1">
<defs>
<filter id="alpha" filterUnits="objectBoundingBox" x="0%" y="0%" width="100%" height="100%">
  <feColorMatrix type="matrix" in="SourceGraphic" values="0 0 0 0 1 0 0 0 0 1 0 0 0 0 1 0 0 0 1 0"/>
</filter>
<image id="image12" width="32" height="32" xlink:href="data:image/png;base64,iVBORw0KGgoAAAANSUhEUgAAACAAAAAgCAYAAABzenr0AAAABmJLR0QA/wD/AP+gvaeTAAAAGklEQVRYhe3BAQEAAACCIP+vbkhAAQAAAO8GECAAAUcBoIgAAAAASUVORK5CYII="/>
<mask id="mask0">
  <g filter="url(#alpha)">
<use xlink:href="#image12"/>
  </g>
</mask>
<linearGradient id="linear0" gradientUnits="userSpaceOnUse" x1="-0.1" y1="47.759998" x2="48" y2="-0.34" gradientTransform="matrix(0.66667,0,0,0.66667,0,0)">
<stop offset="0.1" style="stop-color:rgb(3.137255%,74.117649%,72.941178%);stop-opacity:1;"/>
<stop offset="0.9" style="stop-color:rgb(54.11765%,24.705882%,98.823529%);stop-opacity:1;"/>
</linearGradient>
<clipPath id="clip2">
  <rect x="0" y="0" width="32" height="32"/>
</clipPath>
<g id="surface11" clip-path="url(#clip2)">
<path style=" stroke:none;fill-rule:nonzero;fill:url(#linear0);" d="M -0.0664062 -0.226562 L 32 -0.226562 L 32 31.839844 L -0.0664062 31.839844 Z M -0.0664062 -0.226562 "/>
</g>
<clipPath id="clip1">
  <rect x="0" y="0" width="32" height="32"/>
</clipPath>
<g id="surface14" clip-path="url(#clip1)">
<use xlink:href="#surface11" mask="url(#mask0)"/>
</g>
</defs>
<g id="surface1">
<use xlink:href="#surface14"/>
<path style="fill:none;stroke-width:1.082244;stroke-linecap:butt;stroke-linejoin:miter;stroke:rgb(0%,0%,0%);stroke-opacity:1;stroke-miterlimit:10;" d="M 34.47053 14.701098 L 37.470514 11.701113 L 34.47053 8.701128 M 10.47065 11.701113 C 10.464791 12.310485 10.83393 12.867123 11.396427 13.101497 C 11.958924 13.34173 12.609311 13.212824 13.042903 12.779233 C 13.476495 12.3515 13.61126 11.701113 13.376886 11.132756 C 13.148371 10.570259 12.591733 10.20112 11.982362 10.20112 C 11.578067 10.183542 11.179631 10.335885 10.886664 10.617134 C 10.593697 10.898383 10.423776 11.285099 10.417916 11.689394 Z M 10.47065 35.747867 C 10.464791 36.363098 10.83393 36.913877 11.396427 37.15411 C 11.958924 37.388484 12.609311 37.259578 13.037044 36.825986 C 13.470635 36.398254 13.599541 35.747867 13.371026 35.18537 C 13.136653 34.622872 12.591733 34.253734 11.982362 34.247874 C 11.572207 34.236156 11.179631 34.388499 10.886664 34.669747 C 10.593697 34.950996 10.423776 35.337713 10.417916 35.742007 Z M 34.47053 35.747867 C 34.47053 36.579894 35.144354 37.253719 35.970522 37.259578 C 36.784971 37.242 37.435358 36.579894 37.441218 35.765445 C 37.452936 34.950996 36.814268 34.277171 35.999819 34.242015 C 35.595524 34.236156 35.208807 34.388499 34.921699 34.669747 C 34.634591 34.950996 34.47053 35.337713 34.47053 35.742007 Z M 34.47053 35.747867 L 13.470635 35.747867 M 11.970643 13.201105 L 11.970643 34.242015 M 37.482233 11.689394 L 13.482354 11.689394 " transform="matrix(0.66667,0,0,0.66667,0,0)"/>
</g>
</svg>

<svg xmlns:xlink="http://www.w3.org/1999/xlink" role="img" viewBox="0 0 32 32" xmlns="http://www.w3.org/2000/svg"><defs><clipPath id="c"><use xlink:href="#a"/></clipPath><clipPath id="e"><use xlink:href="#a"/></clipPath><g clip-path="url(#c)" id="f"><path d="M-.066-.227H32V31.84H-.066Zm0 0" style="stroke:none;fill-rule:nonzero;fill:url(#d)"/></g><g clip-path="url(#e)" id="i"><use xlink:href="#f" mask="url(#g)"/></g><linearGradient gradientTransform="scale(.66667)" gradientUnits="userSpaceOnUse" id="d" x1="-.1" x2="48" y1="47.76" y2="-.34"><stop offset=".1" style="stop-color:rgb(3.137255%,74.117649%,72.941178%);stop-opacity:1"/><stop offset=".9" style="stop-color:rgb(54.11765%,24.705882%,98.823529%);stop-opacity:1"/></linearGradient><filter filterUnits="objectBoundingBox" height="100%" id="h" width="100%" x="0%" y="0%"><feColorMatrix in="SourceGraphic" values="0 0 0 0 1 0 0 0 0 1 0 0 0 0 1 0 0 0 1 0"/></filter><path d="M0 0h32v32H0z" id="a"/><mask id="g"><g filter="url(#h)"><use xlink:href="#b"/></g></mask></defs><use xlink:href="#i"/><path d="m34.47 14.701 3-3-3-3m-24 3c-.005.61.364 1.166.926 1.4.563.24 1.213.112 1.647-.322a1.506 1.506 0 0 0-1.06-2.578 1.51 1.51 0 0 0-1.565 1.488Zm0 24.047a1.515 1.515 0 0 0 .926 1.406 1.51 1.51 0 1 0 .586-2.906 1.51 1.51 0 0 0-1.095.422 1.5 1.5 0 0 0-.469 1.072Zm24 0c0 .832.675 1.506 1.5 1.512a1.51 1.51 0 0 0 .03-3.018 1.503 1.503 0 0 0-1.53 1.5Zm0 0h-21m-1.5-22.547v21.041M37.483 11.69h-24" style="fill:none;stroke-width:1.082244;stroke-linecap:butt;stroke-linejoin:miter;stroke:rgb(0%,0%,0%);stroke-opacity:1;stroke-miterlimit:10" transform="scale(.66667)"/></svg>
